X:1
T:I Shall Be Satisfied
T:I Shall Be Satisfied
T:James McGranahan
T:Daniel Webster Whittle, 1881
T:Public Domain Courtesy of the Cyber Hymnal™
T:Public Domain Courtesy of the Cyber Hymnal™
C:James McGranahan
Z:Public Domain
Z:Courtesy of the Cyber Hymnal™
%%score ( 1 2 ) ( 3 4 )
L:1/8
Q:1/4=95
M:4/4
K:C
V:1 treble 
V:2 treble 
V:3 bass 
V:4 bass 
V:1
 [EG]3 [^D^F] [EG]2 [=FA]2 | [FA]2 [EG]2 [CE] [EG]3 | [FA]3 [F^G] [FA]2 [Ac]2 | %3
w: 1.~Soul of mine, in|earth- ly tem- ple,|Why not here con-|
w: 2.~Soul of mine, my|heart is cling- ing|To the earth’s fair|
w: 3.~Soul of mine, must|I sur- ren- der,|See my- self as|
w: 4.~Soul of mine, con-|tin- ue plead- ing;|Sin, re- buke and|
 ([Ac][GB]) [FA]2 [EG]4 | [DF]3 [^D^F] [EG]2 [=FA]2 | [FA]2 [EG]2 [CE] [EG]3 | %6
w: tent * a- bide?|Why art thou for-|ev- er plead- ing?|
w: pomp * and pride;|Ah, why dost thou|thus re- prove me?|
w: cru- * ci- fied;|Turn from all of|earth’s am- bi- tion,|
w: fol- * ly chide;|I ac- cept the|cross of Je- sus,|
 [FA]3 [FB] [Ec]2 ([Fd][Ec]) | [DB]3 [^FA] G4 ||"^Refrain" [EG]4- (3[EG][^D^F][EG] (3[FA][EG][CE] | %9
w: Why art thou not *|sa- tis- fied?||
w: Why art thou not *|sa- tis- fied?|I * shall be sa- tis- fied,|
w: That thou may’st be *|sa- tis- fied?||
w: That thou may’st be *|sa- tis- fied.||
 [Ec]4- (3[Ec][Fd][Ge] (3[Fd][Fc][FA] x3/4 | [EG]2 [GB]>[FA] [EG]2 [DF]>[B,D] | [DF]2 [CE]4 z2 | %12
w: |||
w: I * shall be sa- tis- fied,|When I a- wake in His|like- ness;|
w: |||
w: |||
 [EG]4- (3[EG][^D^F][EG] (3[FA][EG][CE] | [Ge]4- (3[Ge][Gd][Gc] (3[Fd][Fc][FA] x3/8 | %14
w: ||
w: I * shall be sa- tis- fied,|I * shall be sa- tis- fied,|
w: ||
w: ||
 [EG]2 [Ec]>[Fd] [Ge]2 (3[Ec][Fd][Ge] x | [Fd]4 [Ec]4 |] %16
w: ||
w: When I a- wake in His like-|ness. *|
w: ||
w: ||
V:2
 x8 | x8 | x8 | x8 | x8 | x8 | x8 | x4 (G2 =F2) || x8 | x35/4 | x8 | x8 | x8 | x67/8 | x9 | x8 |] %16
V:3
 [C,C]3 [C,C] [C,C]2 [C,C]2 | [C,C]2 [C,C]2 [C,G,] [C,C]3 | [F,C]3 [F,C] [F,C]2 [F,C]2 | %3
w: ~ ~ ~ ~|~ ~ ~ ~|~ ~ ~ ~|
 [C,C]2 [C,C]2 [C,C]4 | [C,C]3 [C,C] [C,C]2 [C,C]2 | [C,C]2 [C,C]2 [C,G,] [C,C]3 | %6
w: ~ ~ ~|~ ~ ~ ~|~ ~ ~ ~|
 [F,C]3 [D,G,] [C,G,]2 G,2 | [D,G,]3 [D,C] [G,,B,]4 || (3[C,C][E,C][G,C] (3[C,C][C,C][C,C] z4 | %9
w: ~ ~ ~ ~|~ ~ ~|I shall be sa- tis- fied,|
 (3:2:2[C,G,][E,G,]G,C(3:2:1[G,C] z2/3 (3[C,G,][C,G,][C,G,](3[F,A,][F,A,][F,C] x/12 | %10
w: I shall be sa- tis- I shall be sa- tis- fied,|
 [G,C]2 G,>G, [G,,C]2 [G,,G,]>[G,,G,] | [C,G,]2 [C,G,]4 z2 | %12
w: ~ ~ ~ ~ ~ ~|~ ~|
 (3[C,C][E,C][G,C] (3[C,C][C,C][C,C] z4 | %13
w: I shall be sa- tis- fied,|
 (3[C,C][E,C][G,C] C(3:2:2[G,C][E,C](3[C,C][D,B,][E,C](3:2:1[F,A,] z2/3 (3:2:1[F,C] x/24 | %14
w: I shall be sa- tis- fied, I shall be sa- fied,|
 [G,C]2 [G,C]>[G,B,] [G,C]2 G,2 G, | (B,2 A,G,) [C,G,]4 |] %16
w: ||
V:4
 x8 | x8 | x8 | x8 | x8 | x8 | x6 (B,,C,) | x8 || x8 | x4/3 (3:2:1G, (3:2:1C x73/12 | x2 G,>G, x4 | %11
 x8 | x8 | x2 (3:2:1C x137/24 | x6 (3:2:2G,2 G, x | G,,4 x4 |] %16

